!!!!SEGMENT: pl-kk--kk-i-3--036_anonim--furmanskie-patrem.krn
!!!cenid: 15xx:645
!!!COM: Anonim
!!!COM-rismid: pe30004985
!!!CDT:
!!!CNT:
!!!OTL: Furmańskie/Patrem
!!!PDT:
!!!AGN:
!!!SMS-siglum: PL-Kk
!!!SMS-shelfmark: Kk.I.3
!!!SMS-shelfwork: 036 W
!!!SMS-variant:
!!!SMS-altvar:
!!!NIFC-rismid: 1001145540
!!!URL-scan: http://repozytorium.nifc.pl/skany/pl-kk-nut--i-3
!!!ONB-nifc: UWAGA: Discantus (s. 112r-115v, skan 0114-0118), Tenor (s. 84v-87r, skan 0257-0259), Bassus (s. 108r-111v, skan 0411-0415)
!!!AIN: 1 alto 1 bass 1 tenor
!!!key: C:ion
**kern	**text	**kern	**text	**kern	**text
*part3	*part3	*part2	*part2	*part1	*part1
*staff3	*staff3	*staff2	*staff2	*staff1	*staff1
*I"Bassus	*	*I"Tenor	*	*I"Discantus	*
*I'B	*	*I'T	*	*I'A	*
*Ibass	*	*Itenor	*	*Ialto	*
*ICvox	*	*ICvox	*	*ICvox	*
*clefF3	*	*clefC5	*	*clefC2	*
*k[bn]	*	*k[bn]	*	*k[bn]	*
*C:ion	*	*C:ion	*	*C:ion	*
=1-	=1-	=1-	=1-	=1-	=1-
1c	Pa-	1c	Pa-	1c	Pa-
1G	-trem	1B	-trem	1d	-trem
=2-	=2-	=2-	=2-	=2-	=2-
1C	om-	1c	om-	1e	om-
2C/	-ni-	2G/	-ni-	2e/	-ni-
2C/	-po-	2G/	-po-	2e/	-po-
=3-	=3-	=3-	=3-	=3-	=3-
*lig	*	*lig	*	*lig	*
1E	-ten-	1E	-ten-	1g	-ten-
1F	.	1D	.	1f	.
*Xlig	*	*Xlig	*	*Xlig	*
=4-	=4-	=4-	=4-	=4-	=4-
*custos:E	*	*	*	*	*
1G	-tem	0C	-tem	1e	-tem
!LO:LB:g=original	!	!	!	!	!
*clefF4	*	*	*	*	*
*	*	*	*	*custos:e	*
2.E/	fa-	.	.	2r	.
!	!	!	!	!LO:LB:g=original	!
.	.	.	.	2.e/	fa-
4D/	.	.	.	.	.
=5-	=5-	=5-	=5-	=5-	=5-
4C/	.	1E	fa-	.	.
4BB/	.	.	.	4d/	.
2AA/	.	.	.	4c/	.
.	.	.	.	4B/	.
2D/	-cto-	1F	-cto-	2A/	.
2D/	-rem	.	.	1d/	-cto-
=6-	=6-	=6-	=6-	=6-	=6-
*	*	*custos:D	*	*	*
1AA	ce-	1E	-rem	.	.
.	.	.	.	2c,/	-re(m)
!	!	!LO:LB:g=original	!	!	!
2D/	-li	1D	ce-	2d/	ce-
2GG/	et	.	.	2d/	-li
=7-	=7-	=7-	=7-	=7-	=7-
2.C/	ter-	2E/	-li	2G/	et
.	.	2E/	et	2G/	ter-
4D/	.	.	.	.	.
2E/	.	2C/	ter-	2G/	-re
*	*	*	*	*2\right	*
2E/	-re	2C/	-re	2g\	vi-
=8-	=8-	=8-	=8-	=8-	=8-
*custos:C	*	*	*	*	*
2C/	vi-	2E/	vi-	2e/	-si-
!LO:PB:g=original	!	!	!	!	!
2C/	-vi-	2E/	-si-	2g/	-bi-
*	*	*	*	*custos:e	*
2D/	-si-	2F/	-bi-	1f	-li-
2D/	-bi-	2F/	-li-	.	.
!	!	!	!	!LO:PB:g=original	!
=9-	=9-	=9-	=9-	=9-	=9-
2.C/	-li-	0G	-um	2.e/	-vm
4D/	-um	.	.	4d/	.
1E	.	.	.	1B	.
=10-	=10-	=10-	=10-	=10-	=10-
2AA/	om-	1A	om-	1c	om-
2AA/	-ni-	.	.	.	.
4AA/	-vm	1A	-ni-	1c	-ni-
4BB/	.	.	.	.	.
4C/	.	.	.	.	.
4D/	.	.	.	.	.
=11-	=11-	=11-	=11-	=11-	=11-
1E	.	0G	-vm	1B	-vm
*custos:C	*	*	*	*	*
2C/	et	.	.	1e	et
!LO:LB:g=original	!	!	!	!	!
2C/	in	.	.	.	.
=12-	=12-	=12-	=12-	=12-	=12-
2.GG/	vi-	2G/	et	2d/	in
.	.	2G/	in	2B/	vi-
4GG/	-ſi-	.	.	.	.
2AA/	-bi-	2C/	vi-	2c/	-si-
*	*	*custos:E	*	*	*
2GG/	-li-	2D/	-si-	4B/	.
.	.	.	.	4A/	.
!	!	!LO:LB:g=original	!	!	!
=13-	=13-	=13-	=13-	=13-	=13-
1C	-um	1E	-bi-	2G/	.
.	.	.	.	1c	-bi-
1r	.	1D	-li-	.	.
.	.	.	.	2B/	-li-
=14-	=14-	=14-	=14-	=14-	=14-
1E	et	0C	-um	1c	-um
*	*	*	*	*custos:g	*
1G	in	.	.	1e	et
!	!	!	!	!LO:LB:g=original	!
=15-	=15-	=15-	=15-	=15-	=15-
1E	v-	1E	et	1g	in
2C,/	-nu(m)	1G	in	1e	v-
1C/	do-	.	.	.	.
=16-	=16-	=16-	=16-	=16-	=16-
.	.	1E	v-	1c,	-num
2AA/	-mi-	.	.	.	.
2AA/	-nu(m)	1C	-nu(m)	2c/	do-
*custos:E	*	*	*	*	*
2AA/	no-	.	.	2c/	-mi-
!LO:LB:g=original	!	!	!	!	!
=17-	=17-	=17-	=17-	=17-	=17-
2.E/	-stru(m)	2C/	do-	2.g\	-num
.	.	2C/	-mi-	.	.
4D/	Ie-	.	.	4f/	.
2C/	-ſum	2G/	-nu(m)	2e,/	.
2C/	cri-	2G/	Je-	2.e/	Je-
=18-	=18-	=18-	=18-	=18-	=18-
4AA/	-stvm	2A/	-sum	.	.
4BB/	.	.	.	4d/	.
4C/	.	2A/	cr(i-	2c/	-svm
4D/	.	.	.	.	.
2E/	.	1G	-stu)m	1B	cri-
1G\	fi-	.	.	.	.
=19-	=19-	=19-	=19-	=19-	=19-
.	.	1c	fi-	1A	.
2F/	-li-	.	.	.	.
*	*	*2\right	*	*	*
1G	-um	2B\	-li-	2G,/	-stu(m)
*	*	*custos:A	*	*	*
.	.	2B\	-um	2d/	fi-
!	!	!LO:LB:g=original	!	!	!
=20-	=20-	=20-	=20-	=20-	=20-
1A	de-	1A	de-	2c/	-li-
*	*	*	*	*custos:B	*
.	.	.	.	2A/	-um
!	!	!	!	!LO:LB:g=original	!
1E	-i	1G	-i	1B	de-
=21-	=21-	=21-	=21-	=21-	=21-
2.F/	v-	2.A/	v-	1A	-i
4E/	-ni-	4G/	-ni	.	.
*custos:C	*	*	*	*	*
2D/	-ge-	2F/	ge-	2d/	u-
!LO:LB:g=original	!	!	!	!	!
2C/	-ni-	2E/	-ni-	2e/	-ni-
=22-	=22-	=22-	=22-	=22-	=22-
2.D/	-tum	0D	-tum	2.f/	-ge-
4E/	.	.	.	4e/	-ni-
1F	.	.	.	1d,	-tum
=23-	=23-	=23-	=23-	=23-	=23-
2C/	et	2E/	et	2G/	et
2C/	ex	2E/	ex	2G/	ex
2E/	pa-	2C/	pa-	4c/	pa-
.	.	.	.	4d/	.
*2\right	*	*	*	*	*
2.G\	-tre	2C/	-tre	4e/	.
.	.	.	.	4f/	.
=24-	=24-	=24-	=24-	=24-	=24-
*	*	*lig	*	*	*
.	.	1E	na-	2g/	.
4F/	.	.	.	.	.
2E/	.	.	.	2g/	-tre
1D	na-	1F	.	1f	na-
*	*	*Xlig	*	*	*
=25-	=25-	=25-	=25-	=25-	=25-
*	*	*	*	*custos:e	*
2C/	-tu(m)	0G	-tum	1e	-tum
2.E/	an-	.	.	.	.
!	!	!	!	!LO:LB:g=original	!
.	.	.	.	1e	an-
4D/	.	.	.	.	.
4C/	.	.	.	.	.
4BB/	.	.	.	.	.
=26-	=26-	=26-	=26-	=26-	=26-
*custos:AA	*	*	*	*	*
1AA	.	1A	an-	2c/	-te
.	.	.	.	1e	om-
!LO:LB:g=original	!	!	!	!	!
1AA	-te	1A	-te	.	.
.	.	.	.	4d/	.
.	.	.	.	4c/	.
=27-	=27-	=27-	=27-	=27-	=27-
2.E/	om-	2G/	om-	2B/	-ni-
*	*	*custos:G	*	*	*
.	.	2G/	-ni-	2B,/	-a
4D/	-ni-	.	.	.	.
!	!	!LO:LB:g=original	!	!	!
2C/	-a	1G	-a	2e/	se-
2.C/	se-	.	.	2.e/	.
=28-	=28-	=28-	=28-	=28-	=28-
.	.	1C	se-	.	.
4BB/	.	.	.	4d/	.
2AA/	.	.	.	1c	.
1GG	-cv-	1D	-cv-	.	.
.	.	.	.	2B/	-cv-
=29-	=29-	=29-	=29-	=29-	=29-
*	*	*	*	*custos:c	*
0C;	-la	0C;	-la	0c;	-la
!LO:PB:g=original	!	!	!	!LO:LB:g=original	!
=30||	=30||	=30||	=30||	=30||	=30||
*clefF3	*	*	*	*	*
1c	De-	0r	.	0r	.
2B/	-vm	.	.	.	.
2B/	de	.	.	.	.
=31-	=31-	=31-	=31-	=31-	=31-
2.c/	de-	1c	De-	4c/	De-
.	.	.	.	4d/	.
.	.	.	.	4e/	.
4B/	.	.	.	4f/	.
1G	.	2B\	-um	1g	.
.	.	2B\	de	.	.
=32-	=32-	=32-	=32-	=32-	=32-
2A/	.	1c	de-	2e/	-vm
1c	.	.	.	2e/	de
.	.	1d	-o	1f	de-
2B/	-o	.	.	.	.
=33-	=33-	=33-	=33-	=33-	=33-
2c\	.	1c	lu-	2e,/	-o
2C/	lu-	.	.	2e/	lu-
2F/	-men	2A/	-men	2c/	-me(n)
*	*	*custos:G	*	*	*
2D/	de	2A/	de	2f/	de
!	!	!LO:PB:g=original	!	!	!
=34-	=34-	=34-	=34-	=34-	=34-
2E/	lv-	1G	lu-	1e	lv-
*custos:D	*	*	*	*	*
2C/	-mi-	.	.	.	.
!LO:LB:g=original	!	!	!	!	!
*clefF4	*	*	*	*	*
1D	-ne	2F/	-mi-	2d/	-mi-
.	.	2F/	-ne	2d/	-ne
=35-	=35-	=35-	=35-	=35-	=35-
2C/	de-	2G/	de-	2e/	de-
*	*	*	*	*custos:c	*
2C/	-vm	2G/	-vm	2e/	-u(m)
!	!	!	!	!LO:PB:g=original	!
2C/	ve-	2E/	ve-	2c/	ve-
2AA,/	-rum	2E/	-ru(m)	2c/	-ru(m)
=36-	=36-	=36-	=36-	=36-	=36-
2.A\	de	2D/	de	2f/	de
.	.	2D/	de-	2f/	de-
4G\	.	.	.	.	.
2F\	.	2D/	-o	2d,/	-o
2F\	de-	2D/	ve-	2f/	ve-
=37-	=37-	=37-	=37-	=37-	=37-
2G\	-o	0C	-ro	2e/	-ro
2A\	ve-	.	.	4c/	.
.	.	.	.	4d/	.
1G,	-ro	.	.	4e/	.
.	.	.	.	4d/	.
.	.	.	.	4c/	.
.	.	.	.	4B/	.
=38-	=38-	=38-	=38-	=38-	=38-
2.F/	ge-	2D/	ge-	1A	ge-
.	.	2D/	-ni-	.	.
4E/	-ni-	.	.	.	.
*custos:D	*	*	*	*	*
2D/	-tum	2F/	-tum	2A/	-ni-
*	*	*custos:E	*	*custos:c	*
!LO:LB:g=original	!	!	!	!	!
2D/	non	2F/	no(n)	2A/	-tum
!	!	!LO:LB:g=original	!	!LO:LB:g=original	!
=39-	=39-	=39-	=39-	=39-	=39-
1C	fa-	1E	fa-	2.c/	non
.	.	.	.	4d/	.
1C	-ctu(m)	1C	-ctum	2e/	fa-
.	.	.	.	2e,/	-ctu(m)
=40-	=40-	=40-	=40-	=40-	=40-
2C/	con-	2G/	con-	2e/	con-
2AA/	-ſub-	2A/	-sub-	2e/	-ſub-
2C/	-stan-	2G/	-stan-	2e/	-stan-
2D/	-ci-	2F/	-ci-	4d/	.
.	.	.	.	4c/	.
=41-	=41-	=41-	=41-	=41-	=41-
2.E/	-a-	1G	-a-	2B/	.
.	.	.	.	2B/	-ci-
4D/	.	.	.	.	.
2C/	.	1E	-lem	1c	-a-
2AA/	-lem	.	.	.	.
=42-	=42-	=42-	=42-	=42-	=42-
2D/	pa-	2F/	pa-	2A/	-lem
2C/	.	2E/	.	1e	pa-
1D	.	1F	.	.	.
.	.	.	.	2d/	.
=43-	=43-	=43-	=43-	=43-	=43-
*	*	*	*	*custos:c	*
0AA	-tri	0E	-tri	1e	.
!	!	!	!	!LO:LB:g=original	!
.	.	.	.	1c	-tri
=44-	=44-	=44-	=44-	=44-	=44-
*custos:AA	*	*	*	*	*
1BB	per	1D	per	1d	per
!LO:LB:g=original	!	!	!	!	!
4AA/	quem	1E	que(m)	2c/	qvem
4BB/	.	.	.	.	.
4C/	.	.	.	1g\	om-
4D/	.	.	.	.	.
=45-	=45-	=45-	=45-	=45-	=45-
*	*	*custos:E	*	*	*
2E/	.	1G	om-	.	.
2.C/	om-	.	.	2e/	-(ni)-
!	!	!LO:LB:g=original	!	!	!
.	.	2E/	-ni-	1c,	-a
4C/	-ni-	.	.	.	.
2C/	-a	2E/	-a	.	.
=46-	=46-	=46-	=46-	=46-	=46-
2.F\	fa-	1D	fa-	2.d/	fa-
4G\	.	.	.	4e/	.
2A\	.	1D	-cta	2f/	.
2F\	-cta	.	.	2d/	-cta
=47-	=47-	=47-	=47-	=47-	=47-
*custos:E	*	*	*	*	*
1G	su(n)t	0C	su(n)t	1e	su(n)t
!LO:LB:g=original	!	!	!	!	!
2.E/	qui	.	.	2r	.
.	.	.	.	2.e/	qui
4D/	.	.	.	.	.
=48-	=48-	=48-	=48-	=48-	=48-
4C/	.	1E	qui	.	.
4BB/	.	.	.	4d/	.
2AA/	.	.	.	2e/	pro-
*	*	*	*	*custos:e	*
2D/	pro-	2D/	pro-	2f/	.
!	!	!	!	!LO:LB:g=original	!
2C/	-pter	2E/	-pter	2e/	-pter
=49-	=49-	=49-	=49-	=49-	=49-
1D	nos	1F	nos	1d,	nos
2E/	Ho-	2E/	ho-	2g\	ho-
2F\	-mi-	2D/	-mi-	2f/	-(mi)-
=50-	=50-	=50-	=50-	=50-	=50-
1G	-nes	0C,	-nes	1e	-nes
2r	.	.	.	2.g\	et
1G\	et	.	.	.	.
.	.	.	.	4f/	.
=51-	=51-	=51-	=51-	=51-	=51-
.	.	1G	et	2.d/	.
4F/	.	.	.	.	.
4E/	.	.	.	4e/	.
2D/	.	2F/	pro-	2f/	pro-
*custos:F	*	*custos:A	*	*	*
2C/	pro-	2G/	-pter	2e/	-pter
!LO:PB:g=original	!	!LO:LB:g=original	!	!	!
=52-	=52-	=52-	=52-	=52-	=52-
2F/	-pter	1A	no-	2.c/	.
2F/	no-	.	.	.	.
.	.	.	.	4d/	.
2.C/	.	2G/	-stra(m)	2e/	.
.	.	2G/	sa-	2e/	no-
4BB/	.	.	.	.	.
=53-	=53-	=53-	=53-	=53-	=53-
1GG	-stram	2.G/	-lu-	1d	-ſtra(m)
.	.	4F/	.	.	.
*	*	*	*	*custos:d	*
2AA/	sa-	2E/	.	2c/	ſa-
!	!	!	!	!LO:LB:g=original	!
2BB/	-lu-	2D/	.	2d/	-lu-
=54-	=54-	=54-	=54-	=54-	=54-
1C	-tem	1E	-tem	1G	-tem
2r	.	2r	.	2r	.
2C/	de-	2E/	de-	2c/	de-
=55-	=55-	=55-	=55-	=55-	=55-
4GG/	-ſcen-	1G	-scen-	1B	-ſcen-
4AA/	.	.	.	.	.
4BB/	.	.	.	.	.
4C/	.	.	.	.	.
1D	.	2.F/	-dit	1A	-dit
.	.	4E/	.	.	.
=56-	=56-	=56-	=56-	=56-	=56-
2GG/	-dit	2D/	de	2B/	de
*custos:GG	*	*	*	*	*
2AA/	de	2C/	.	2.c/	ce-
!LO:LB:g=original	!	!	!	!	!
1GG	ce-	1D	ce-	.	.
.	.	.	.	4A/	.
.	.	.	.	2B/	-lis
=57-	=57-	=57-	=57-	=57-	=57-
*	*	*custos:G	*	*	*
0C;	-lis	0C;<	-lis	0c;	.
!	!	!LO:LB:g=original	!	!	!
=58||-	=58||-	=58||-	=58||-	=58||-	=58||-
*	*	*lig	*	*	*
1C	et	1G	et	2.e/	et
.	.	.	.	4d/	.
*	*	*	*	*custos:f	*
2F/	in-	1A	.	2c/	.
!	!	!	!	!LO:PB:g=original	!
2D/	-car-	.	.	2f/	in-
*	*	*Xlig	*	*	*
=59-	=59-	=59-	=59-	=59-	=59-
4C/	-na-	1c	in-	1e	-car-
4D/	.	.	.	.	.
4E/	.	.	.	.	.
4F/	.	.	.	.	.
1G	.	1B	-car-	2d/	-na-
.	.	.	.	2d/	-tus
=60-	=60-	=60-	=60-	=60-	=60-
2C/	-tus	2c\	-na-	2.e/	est
2C/	est	2c\	-tus	.	.
.	.	.	.	4d/	.
2F\	de	1A	est	2c,/	.
2F\	spi-	.	.	2f/	de
=61-	=61-	=61-	=61-	=61-	=61-
*custos:C	*	*	*	*	*
2C/	-ri-	2c\	de	2.e/	spi-
!LO:LB:g=original	!	!	!	!	!
2.C/	-tu	2c\	spi-	.	.
.	.	.	.	4f/	-ri-
.	.	2G/	-ri-	4g/	.
4D/	.	.	.	4f/	.
2E/	.	2G/	-tu	4e/	.
.	.	.	.	4d/	.
=62-	=62-	=62-	=62-	=62-	=62-
2.F/	san-	2.A/	san-	2c/	.
*	*	*	*	*custos:c	*
.	.	.	.	2c/	-tu
4E/	.	4G/	.	.	.
!	!	!	!	!LO:LB:g=original	!
1F	.	1A	.	2.c/	san-
.	.	.	.	4d/	-cto
=63-	=63-	=63-	=63-	=63-	=63-
*	*	*custos:B	*	*	*
0C	-cto	0G	-cto	0e	.
!	!	!LO:PB:g=original	!	!	!
=64-	=64-	=64-	=64-	=64-	=64-
1G	ex	1B	ex	2.d/	ex
.	.	.	.	4c/	.
2G\	Ma-	1d	Ma-	2B/	.
2G\	-ri-	.	.	2B/	ma-
=65-	=65-	=65-	=65-	=65-	=65-
1C	-a	1c	-ri-	1e	-ri-
2F/	vir-	1A	-a	2c/	-a
2D/	-gi-	.	.	2f/	vir-
=66-	=66-	=66-	=66-	=66-	=66-
2.E/	.	2.G/	vir-	2e/	-gi-
.	.	.	.	1g	-ne
*custos:G	*	*	*	*	*
4F/	.	4F/	-gi-	.	.
!LO:LB:g=original	!	!	!	!	!
1G	-ne	1E	-ne	.	.
.	.	.	.	4f/	.
.	.	.	.	4e/	.
=67-	=67-	=67-	=67-	=67-	=67-
*	*	*	*	*custos:e	*
2r	.	2D/	et	2f/	et
!	!	!	!	!LO:LB:g=original	!
2C/	et	2E/	ho-	2e/	ho-
2.D/	ho-	1F	-mo	1d	-mo
4C/	-mo	.	.	.	.
=68-	=68-	=68-	=68-	=68-	=68-
1AA	fa-	1E	fa-	1c	.
1BB	-ctus	1D	-ctus	2.d/	fa-
.	.	.	.	4d/	-ctus
=69-	=69-	=69-	=69-	=69-	=69-
*	*	*custos:E	*	*	*
0AA	est	0E	est	0c	est
!	!	!LO:LB:g=original	!	!	!
=70-	=70-	=70-	=70-	=70-	=70-
1E	Cru-	0r	.	1r	.
1G	-ci-	.	.	1e	Cru-
=71-	=71-	=71-	=71-	=71-	=71-
1E	-fi-	1E	cru-	1g	-ci-
1C	-xus	1G	-ci-	1e	-fi-
=72-	=72-	=72-	=72-	=72-	=72-
2.C/	e-	1E	-fi-	1c,	-xus
4D/	-ci-	.	.	.	.
2E/	-am	1C	-xus	2c/	e-
*custos:E	*	*	*	*	*
2E/	pro	.	.	2c/	-ti-
!LO:LB:g=original	!	!	!	!	!
=73-	=73-	=73-	=73-	=73-	=73-
1E	no-	2C/	e-	2.g\	-am
.	.	2C/	-ci-	.	.
*	*	*	*	*custos:e	*
.	.	.	.	4f/	pro
!	!	!	!	!LO:LB:g=original	!
1C	-bis	2G/	-am	1e	no-
.	.	2G/	pro	.	.
=74-	=74-	=74-	=74-	=74-	=74-
2r	.	1A	no-	1e	-bis
2AA/	ſub	.	.	.	.
2.C/	pon-	2G/	-bis	2e/	ſub
.	.	2G/	sub	2.e/	pon-
4C/	-ci-	.	.	.	.
=75-	=75-	=75-	=75-	=75-	=75-
2C/	-o	2c\	pon-	.	.
.	.	.	.	4e/	-ci-
2C/	pi-	2c\	-ci-	2e,/	-o
2.G\	-la-	2B\	-o	2d/	pi-
*	*	*custos:A	*	*	*
.	.	2B\	pi-	2.g/	-la-
4F/	.	.	.	.	.
!	!	!LO:LB:g=original	!	!	!
=76-	=76-	=76-	=76-	=76-	=76-
1D	.	1A	-la-	.	.
.	.	.	.	4e/	.
.	.	.	.	2f/	.
1E	-to	1G	-to	1g	-to
=77-	=77-	=77-	=77-	=77-	=77-
2.D/	paſ-	2.A/	paſ-	2.f/	paſ-
4E/	-sus	4G/	-sus	4e/	-ſus
2F/	et	2F/	et	2d/	et
*custos:A	*	*	*	*	*
2G/	se-	2E/	se-	2e/	se-
!LO:PB:g=original	!	!	!	!	!
=78-	=78-	=78-	=78-	=78-	=78-
2.A\	-pul-	1D	-pul-	2.f/	-pul-
*	*	*	*	*custos:f	*
4G/	.	.	.	4e/	.
!	!	!	!	!LO:LB:g=original	!
2F/	.	1D	-tus	2f/	-tus
2F/	-tus	.	.	2d/	.
=79-	=79-	=79-	=79-	=79-	=79-
0G;<	est	0C;	est	0e;	est
=80||-	=80||-	=80||-	=80||-	=80||-	=80||-
1r	.	1c	et	0r	.
1G	et	2B\	re-	.	.
.	.	2B\	-ſur-	.	.
=81-	=81-	=81-	=81-	=81-	=81-
*	*	*custos:d	*	*	*
2A\	re-	1c	-re-	1c	et
2A\	-ſur-	.	.	.	.
!	!	!LO:LB:g=original	!	!	!
1G	-re-	1d	-xit	2B/	re-
.	.	.	.	2B/	-ſur-
=82-	=82-	=82-	=82-	=82-	=82-
2C/	-xit	1c	ter-	2c/	-re-
2.F/	ter-	.	.	2A/	-xit
.	.	2A/	-ci-	2.c/	ter-
4F/	-ci-	.	.	.	.
*custos:C	*	*	*	*	*
2F/	-a	2A/	-a	.	.
.	.	.	.	4d/	.
!LO:LB:g=original	!	!	!	!	!
=83-	=83-	=83-	=83-	=83-	=83-
1C	di-	1G	di-	2e/	.
.	.	.	.	2e/	-ci-
2C/	-e	1E	-e	2e,/	-a
*	*	*	*	*custos:e	*
2C/	se-	.	.	2g/	di-
!	!	!	!	!LO:PB:g=original	!
=84-	=84-	=84-	=84-	=84-	=84-
2.C/	-cvn-	2G/	se-	1e	-e
.	.	2G/	-cun-	.	.
4D/	.	.	.	.	.
4E/	.	2E/	-du(m)	2g/	se-
4F/	.	.	.	.	.
2G\	.	2E/	scri-	2g/	-cun-
=85-	=85-	=85-	=85-	=85-	=85-
2.A\	-du(m)	0D	-ptu-	2.f/	-du(m)
4G\	.	.	.	4e/	.
2F/	scri-	.	.	2d/	.
2F/	-ptu-	.	.	2d/	scri-
=86-	=86-	=86-	=86-	=86-	=86-
1G	-ras	0C	-ras	1e	-ptu-
2G\	et	.	.	1e	-ras
1E\	.	.	.	.	.
=87-	=87-	=87-	=87-	=87-	=87-
.	.	1E	et	0r	.
4D/	.	.	.	.	.
*custos:BB	*	*	*	*	*
4C/	.	.	.	.	.
!LO:LB:g=original	!	!	!	!	!
1BB	a-	1D	as-	.	.
=88-	=88-	=88-	=88-	=88-	=88-
*	*	*custos:F	*	*	*
2AA/	-ſcen-	1E	-cen-	1e	et
2.C/	.	.	.	.	.
!	!	!LO:LB:g=original	!	!	!
.	.	1F	-dit	1d	as-
4AA/	.	.	.	.	.
2BB/	-dit	.	.	.	.
=89-	=89-	=89-	=89-	=89-	=89-
2C/	.	1E	in	1e	-cen-
2G\	in	.	.	.	.
2.A\	ce-	1D	ce-	1f	-dit
4B\	.	.	.	.	.
=90-	=90-	=90-	=90-	=90-	=90-
1c	.	0C	-lum	2.e/	in
*	*	*	*	*custos:g	*
.	.	.	.	4f/	.
!	!	!	!	!LO:LB:g=original	!
2G\	-lum	.	.	2g/	.
1G\	se-	.	.	2g/	ce-
=91-	=91-	=91-	=91-	=91-	=91-
.	.	1E	se-	1g,	-lu(m)
4F/	.	.	.	.	.
4E/	.	.	.	.	.
1D	-det	2F/	-det	2r	.
.	.	2F/	ad	2d/	se-
=92-	=92-	=92-	=92-	=92-	=92-
2C/	.	2.G/	dex-	2e/	-det
*custos:C	*	*	*	*	*
2GG/	ad	.	.	2d/	ad
.	.	4G/	-te-	.	.
!LO:LB:g=original	!	!	!	!	!
2.C/	dex-	1G	-ra(m)	2.e/	dex-
4BB/	-te-	.	.	4d/	-te-
=93-	=93-	=93-	=93-	=93-	=93-
2AA/	-ram	0A	pa-	2c,/	-ra(m)
2.AA/	pa-	.	.	1e	pa-
4BB/	.	.	.	.	.
4C/	.	.	.	4d/	.
4D/	.	.	.	4c/	.
=94-	=94-	=94-	=94-	=94-	=94-
1E	.	0G	-tris	2B/	.
.	.	.	.	2G/	-tris
1C	-tris	.	.	2r	.
.	.	.	.	2g\	et
=95-	=95-	=95-	=95-	=95-	=95-
2r	.	2G/	et	2d/	i-
*	*	*custos:C	*	*custos:e	*
2G\	et	2G/	i-	2d/	-te-
!	!	!LO:PB:g=original	!	!LO:LB:g=original	!
2G\	i-	2C/	-te-	2e,/	-rum
2F\	-te-	2D/	-ru(m)	2f/	ven-
=96-	=96-	=96-	=96-	=96-	=96-
2E,/	-ru(m)	2E/	ven-	2g/	-tu-
2G\	ven-	2E/	-tu-	2e/	.
*custos:F	*	*	*	*	*
2A\	-tu-	1D	-rus	2f/	-rus
!LO:LB:g=original	!	!	!	!	!
2F/	-rus	.	.	2d/	.
=97-	=97-	=97-	=97-	=97-	=97-
1G	est	0C	.	0e	est
*lig	*	*	*	*	*
1E	cu(m)	.	.	.	.
=98-	=98-	=98-	=98-	=98-	=98-
*	*	*lig	*	*	*
1G	.	1E	cu(m)	1r	.
*Xlig	*	*	*	*lig	*
2.E/	glo-	1G	.	1e	cu(m)
4D/	-ri-	.	.	.	.
*	*	*Xlig	*	*	*
=99-	=99-	=99-	=99-	=99-	=99-
1C	-a	2.E/	glo-	1g	.
.	.	4D/	-ri-	.	.
*	*	*	*	*Xlig	*
2r	.	1C	-a	2.e/	glo-
2G\	iu-	.	.	.	.
.	.	.	.	4d/	-ri-
=100-	=100-	=100-	=100-	=100-	=100-
2E/	-di-	2C/	iu-	2c/	-a
2G\	-ca-	2C/	-di-	2g/	iu-
2C,/	-re	2G/	-ca-	2e/	-di-
2E/	vi-	2G/	-re	2g/	-ca-
=101-	=101-	=101-	=101-	=101-	=101-
2F/	-uos	1A	vi-	2c/	-re
*	*	*	*	*custos:g	*
2D/	et	.	.	2f/	vi-
*	*	*custos:c	*	*	*
!	!	!	!	!LO:LB:g=original	!
2.E/	mor-	1G	-uos	2.g/	-vos
*custos:C	*	*	*	*	*
4D/	.	.	.	4f/	.
!LO:PB:g=original	!	!LO:LB:g=original	!	!	!
=102-	=102-	=102-	=102-	=102-	=102-
*	*	*lig	*	*	*
2C/	.	1c	et	2e/	.
4BB/	.	.	.	4d/	.
4AA/	.	.	.	4c/	.
2GG/	.	1B	.	1d	et
1G\	.	.	.	.	.
*	*	*Xlig	*	*	*
=103-	=103-	=103-	=103-	=103-	=103-
.	.	1A	mor-	2e/	mor-
2F\	-[tu	.	.	2f/	-tu-
1G	-o]s	2G/	-tu-	2d/	-os
.	.	2G/	-os	2d/	cu-
=104-	=104-	=104-	=104-	=104-	=104-
2.D/	cu-	2.A/	cu-	2.f/	-ius
4E/	-ius	4G/	-ius	4e/	.
2F/	re-	2F/	re-	2d/	re-
2G/	-gni	2E/	-gni	2e/	-gni
=105-	=105-	=105-	=105-	=105-	=105-
2.F/	non	0D	no(n)	2A/	no(n)
.	.	.	.	2.d/	e-
4E/	.	.	.	.	.
2D/	.	.	.	.	.
.	.	.	.	4c/	.
*	*	*	*	*custos:G	*
2GG/	e-	.	.	2d/	.
!	!	!	!	!LO:LB:g=original	!
=106-	=106-	=106-	=106-	=106-	=106-
1C	-rit	2E/	e-	2G/	-rit
.	.	2E/	-rit	2.c/	fi-
1GG	fi-	1D	fi-	.	.
.	.	.	.	4A/	.
.	.	.	.	2B/	-nis
=107-	=107-	=107-	=107-	=107-	=107-
*custos:c	*	*	*	*	*
0C;	-nis	0C;	-nis	0c;	.
!LO:LB:g=original	!	!	!	!	!
=108||-	=108||-	=108||-	=108||-	=108||-	=108||-
*clefF3	*	*	*	*	*
1c	et	0r	.	0r	.
1B	in	.	.	.	.
=109-	=109-	=109-	=109-	=109-	=109-
*	*	*custos:B	*	*	*
1c	spi-	1c	et	1c	et
!	!	!LO:LB:g=original	!	!	!
2G/	-ri-	1B	in	1d	in
2G,/	-tum	.	.	.	.
=110-	=110-	=110-	=110-	=110-	=110-
2.C/	san-	1c	spi-	2.e/	spi-
4D/	.	.	.	4f/	-ri-
4E/	.	2G/	-ri-	2g/	-tu(m)
4D/	.	.	.	.	.
4C/	.	2G/	-tu(m)	1g\	ſ(an)-
4BB/	.	.	.	.	.
=111-	=111-	=111-	=111-	=111-	=111-
2C/	-ctum	2E/	s(an)-	.	.
*	*	*	*	*custos:g	*
2D/	.	2F/	-ct(u)m	2d/	-ct(u)m
!	!	!	!	!LO:PB:g=original	!
2E/	do-	2E/	do-	2g/	do-
2F/	-mi-	2D/	-mi-	2f/	-mi-
=112-	=112-	=112-	=112-	=112-	=112-
*custos:F	*	*	*	*	*
0G	nu(m)	0C	-nu(m)	1e	-nu(m)
.	.	.	.	1e	et
!LO:LB:g=original	!	!	!	!	!
=113-	=113-	=113-	=113-	=113-	=113-
*clefF4	*	*	*	*	*
2.F/	et	2D/	et	2.f/	vi-
.	.	2D/	vi-	.	.
4G\	vi-	.	.	4e/	.
2A\	-vi-	2F/	-vi-	2c/	.
2F/	-fi-	2F/	-fi-	2d/	-vi-
=114-	=114-	=114-	=114-	=114-	=114-
1G	-can-	1E	-can-	2e/	-fi-
.	.	.	.	2e/	-can-
*	*	*custos:G	*	*	*
1G	-tem	1C	-tem	1e,	-tem
!	!	!LO:LB:g=original	!	!	!
=115-	=115-	=115-	=115-	=115-	=115-
2C/	qvi	2G/	qvi	2e/	qui
2AA/	ex	2A/	ex	2e/	ex
2C/	pa-	2G/	pa-	2e/	pa-
*	*	*	*	*custos:e	*
2D/	-tre	2F/	-tre	2d/	-tre
!	!	!	!	!LO:LB:g=original	!
=116-	=116-	=116-	=116-	=116-	=116-
1C	fi-	1G	fi-	2.e/	fi-
.	.	.	.	4f/	.
2C/	-li-	2E/	-li-	2g/	.
2C,/	-o	2E/	-o	2e/	-li-
=117-	=117-	=117-	=117-	=117-	=117-
2D/	q(ue)	2F/	q(ue)	2d/	-o
2C/	pro-	2E/	pro-	1e	q(ue)
*custos:AA	*	*	*	*	*
1D	-ce-	1F	-ce-	.	.
.	.	.	.	2d/	pro-
!LO:LB:g=original	!	!	!	!	!
=118-	=118-	=118-	=118-	=118-	=118-
1AA	-dit	0E	-dit	1e	-ce-
1E	qui	.	.	1e	-dit
=119-	=119-	=119-	=119-	=119-	=119-
1G	cu(m)	1E	qvi	1r	.
1E	pa-	1G	cum	1e	qvi
=120-	=120-	=120-	=120-	=120-	=120-
1C	-tre	1E	p(a-	1g	cu(m)
*	*	*custos:C	*	*	*
2r	.	1C	-t)re	1e	pa-
2C/	et	.	.	.	.
!	!	!LO:LB:g=original	!	!	!
=121-	=121-	=121-	=121-	=121-	=121-
2.E/	fi-	1C	et	2c/	-tre
*	*	*	*	*custos:e	*
.	.	.	.	2g/	et
4D/	.	.	.	.	.
!	!	!	!	!LO:LB:g=original	!
2.C/	-li-	2G/	fi-	2.e/	fi-
.	.	2G/	-li-	.	.
4BB/	.	.	.	4d/	-li-
=122-	=122-	=122-	=122-	=122-	=122-
2AA/	-o	2A/	-o	2c/	-o
2D/	si-	2A/	si-	2f/	si-
2.E/	-mul	1G	-mul	2.g/	-mvl
4D/	a-	.	.	4f/	.
=123-	=123-	=123-	=123-	=123-	=123-
*custos:C	*	*	*	*	*
2C/	-do-	1c	a-	1e	.
!LO:LB:g=original	!	!	!	!	!
2C/	-ra-	.	.	.	.
2GG/	-tur	1B	-do-	2d/	a-
2.G\	.	.	.	2B/	-do-
=124-	=124-	=124-	=124-	=124-	=124-
.	.	1A	-ra-	1c	-ra-
4E/	.	.	.	.	.
2F/	.	.	.	.	.
2G\	tur	1G	-tur	2B/	-tur
2C/	et	.	.	1e\	et
=125-	=125-	=125-	=125-	=125-	=125-
1C	con-	1G	et	.	.
.	.	.	.	1g	con-
1C	-glo-	1E	con-	.	.
.	.	.	.	4f/	.
.	.	.	.	4e/	.
=126-	=126-	=126-	=126-	=126-	=126-
2D/	-ri-	2F/	-glo-	2d/	.
*	*	*	*	*custos:d	*
2C/	-fi-	2E/	-ri-	2e/	-glo-
!	!	!	!	!LO:LB:g=original	!
1D	-ca-	2F/	-fi-	2d/	-ri-
*	*	*custos:E	*	*	*
.	.	2F/	-ca-	2d/	-fi-
!	!	!LO:PB:g=original	!	!	!
=127-	=127-	=127-	=127-	=127-	=127-
0AA	-tur	0E	-tur	1e	-ca-
.	.	.	.	1c	-tur
=128-	=128-	=128-	=128-	=128-	=128-
2D/	qvi	2D/	qui	2f/	qui
*custos:E	*	*	*	*	*
2F/	lo-	2D/	lo-	2d/	lo-
!LO:PB:g=original	!	!	!	!	!
2E/	-cu-	2E/	-cu-	2g/	-cu-
2D/	-tus	2F/	-tus	2f/	-tus
=129-	=129-	=129-	=129-	=129-	=129-
4C/	est	1G	est	2e/	est
4D/	.	.	.	.	.
4E/	.	.	.	1g	per
4F/	.	.	.	.	.
1G	.	1E	per	.	.
.	.	.	.	4f/	.
.	.	.	.	4e/	.
=130-	=130-	=130-	=130-	=130-	=130-
2.A\	per	1D	Pro-	2f/	pro-
.	.	.	.	2f/	-phe-
4G/	.	.	.	.	.
2F/	pro-	1D	-phe-	1f	-tas
2F/	-phe-	.	.	.	.
=131-	=131-	=131-	=131-	=131-	=131-
1G	-tas	0C	-tas	1e	.
1G	.	.	.	2r	.
*	*	*	*	*custos:e	*
.	.	.	.	1g\	et
=132-	=132-	=132-	=132-	=132-	=132-
2r	.	1E	et	.	.
*custos:A	*	*	*	*	*
!	!	!	!	!LO:LB:g=original	!
2G\	et	.	.	2e/	v-
!LO:LB:g=original	!	!	!	!	!
4A\	v-	1D	v-	2.f/	-na(m)
4G\	.	.	.	.	.
4F/	.	.	.	.	.
4E/	.	.	.	4e/	.
=133-	=133-	=133-	=133-	=133-	=133-
1D	.	1F	-na(m)	2d/	san-
.	.	.	.	2d,/	-cta(m)
2E,/	-na(m)	1E	ſ(an)-	2g/	Ka-
2.C/	san-	.	.	2g/	-tho-
=134-	=134-	=134-	=134-	=134-	=134-
*	*	*custos:G	*	*	*
.	.	0C	-ctam	2.g/	.
4D/	.	.	.	.	.
4E/	.	.	.	.	.
4F/	.	.	.	4f/	.
1G	.	.	.	1.e	-li-
!	!	!LO:LB:g=original	!	!	!
=135-	=135-	=135-	=135-	=135-	=135-
2C/	-ctam	1G	Ka-	.	.
2C/	Ka-	.	.	2e/	-ca(m)
2D/	-to-	2F/	-tho-	2f/	.
2E/	-li-	2G/	-li-	4e/	.
.	.	.	.	4d/	.
=136-	=136-	=136-	=136-	=136-	=136-
1F	-ca(m)	1A	-cam	2.c/	.
*	*	*	*	*custos:e	*
.	.	.	.	4d/	.
*custos:E	*	*	*	*	*
!	!	!	!	!LO:PB:g=original	!
1C	et	1G	et	2e/	.
.	.	.	.	2e/	et
!LO:LB:g=original	!	!	!	!	!
=137-	=137-	=137-	=137-	=137-	=137-
2E/	a-	2G/	A-	2e/	a-
2F\	-po-	2F/	-po-	2d/	-po-
2G\	-sto-	2E/	-sto-	2e/	-sto-
2A\	-li-	2D/	-li-	2f/	-li-
=138-	=138-	=138-	=138-	=138-	=138-
4G/	-cam	1E	-cam	2.g/	-cam
4F/	.	.	.	.	.
4E/	.	.	.	.	.
4D/	.	.	.	8f/L	.
.	.	.	.	8e/J	.
2C/	.	1G	Ec-	1e	e-
2C/	ec-	.	.	.	.
=139-	=139-	=139-	=139-	=139-	=139-
1E	-cle-	1E	-cle-	1g	-cle-
1F	-si-	1D	-si-	1f	-si-
=140-	=140-	=140-	=140-	=140-	=140-
*custos:E	*	*custos:G	*	*	*
0G;<	-am	0C;	-am	0e;	-am
!LO:LB:g=original	!	!LO:LB:g=original	!	!	!
=141||-	=141||-	=141||-	=141||-	=141||-	=141||-
*lig	*	*lig	*	*lig	*
1E	Con-	1G	Con-	1g	Con-
1D	-fi-	1A	.	1f	.
*Xlig	*	*Xlig	*	*Xlig	*
=142-	=142-	=142-	=142-	=142-	=142-
*	*	*	*	*custos:d	*
4C/	.	1c	-fi-	1e	-fi-
4D/	.	.	.	.	.
4E/	.	.	.	.	.
4F/	.	.	.	.	.
!	!	!	!	!LO:LB:g=original	!
1G	.	1B	-te-	1d	-te-
=143-	=143-	=143-	=143-	=143-	=143-
2C/	-te-	1c	-or	1e	-or
2C/	-or	.	.	.	.
1D	v-	1A	v-	1f	v-
=144-	=144-	=144-	=144-	=144-	=144-
4C/	-nu(m)	1c	-n(um)	1e	-nu(m)
4D/	.	.	.	.	.
4E/	.	.	.	.	.
4F/	.	.	.	.	.
2G/	.	1G	bap-	2d/	ba-
2E/	bap-	.	.	1g\	.
=145-	=145-	=145-	=145-	=145-	=145-
1D	-tis-	0A	-tis-	.	.
.	.	.	.	4f/	.
.	.	.	.	4e/	.
*custos:E	*	*	*	*	*
1D	-ma	.	.	1f	-pti-
!LO:LB:g=original	!	!	!	!	!
=146-	=146-	=146-	=146-	=146-	=146-
2.E/	in	0G	-ma	0g	-sma
4D/	.	.	.	.	.
4E/	.	.	.	.	.
4F/	.	.	.	.	.
1F\	.	.	.	.	.
=147-	=147-	=147-	=147-	=147-	=147-
.	.	1B	in	2.d/	in
4F/	.	.	.	.	.
4E/	.	.	.	4e/	.
2D/	.	1d	re-	2f/	re-
2G\	re-	.	.	2d/	-miſ-
=148-	=148-	=148-	=148-	=148-	=148-
2C/	-miſ-	1c	-mis-	1e	-si-
2C/	-si-	.	.	.	.
*	*	*	*	*custos:f	*
2.F\	-o-	1A	-ſi-	2c/	-o-
!	!	!	!	!LO:LB:g=original	!
.	.	.	.	2f/	.
4E/	.	.	.	.	.
=149-	=149-	=149-	=149-	=149-	=149-
1C	.	1G	-o-	2.e/	-nem
.	.	.	.	4d/	.
*	*	*custos:D	*	*	*
1C	-nem	1E	-nem	1c	.
!	!	!LO:LB:g=original	!	!	!
=150-	=150-	=150-	=150-	=150-	=150-
2.F/	pec-	1D	pec-	1A	pec-
*custos:D	*	*	*	*	*
4E/	.	.	.	.	.
!LO:PB:g=original	!	!	!	!	!
2.D/	.	1F	-ca-	2A/	-ca-
.	.	.	.	1d/	.
4C/	.	.	.	.	.
=151-	=151-	=151-	=151-	=151-	=151-
*	*	*lig	*	*	*
2AA/	.	1E	-to-	.	.
2AA/	-ca-	.	.	2c/	.
1BB	-to-	1D	.	1d	-to-
*	*	*Xlig	*	*	*
=152-	=152-	=152-	=152-	=152-	=152-
0AA	-rum	0E	-r(em)	1c	-re(m)
.	.	.	.	1e	et
=153-	=153-	=153-	=153-	=153-	=153-
1C	et	1E	et	2c/	ex-
.	.	.	.	2.e/	-pe-
2C/	ex-	1G	ex-	.	.
.	.	.	.	4f/	.
1C/	-pe-	.	.	2g/	-cto
=154-	=154-	=154-	=154-	=154-	=154-
*	*	*	*	*custos:g	*
.	.	1E	-pe-	1c	.
2C/	-cto	.	.	.	.
!	!	!	!	!LO:LB:g=original	!
2.E/	re-	1C	-cto	2.g\	re-
4F/	-ſur-	.	.	4f/	-ſur-
=155-	=155-	=155-	=155-	=155-	=155-
2G/	-re-	2C/	re-	2e/	-re-
2G/	-cti-	2C/	-ſur-	2e/	-cti-
2E/	-o-	2G/	-re-	1e	-o-
*custos:F	*	*	*	*	*
2C/	-nem	2G/	-cti-	.	.
!LO:LB:g=original	!	!	!	!	!
=156-	=156-	=156-	=156-	=156-	=156-
2F/	mor-	1A	-o-	2c/	-nem
2D/	-tu-	.	.	2f/	mor-
2.E/	-o-	1G	-nem	2e/	-tu-
.	.	.	.	2.g/	-o-
4D/	.	.	.	.	.
=157-	=157-	=157-	=157-	=157-	=157-
1C	.	2c\	mor-	.	.
.	.	.	.	4f/	.
*	*	*custos:B	*	*	*
.	.	2c\	-tu-	2e/	-ru(m)
!	!	!LO:LB:g=original	!	!	!
2GG/	-rum	2B\	-o-	1d	.
1G\	et	2B\	-rum	.	.
=158-	=158-	=158-	=158-	=158-	=158-
.	.	1A	et	2e/	et
2F/	vi-	.	.	2f/	vi-
2G\	-tam	1G	vi-	2d/	-ta(m)
*	*	*	*	*custos:f	*
2E/	fu-	.	.	2e/	fu-
!	!	!	!	!LO:LB:g=original	!
=159-	=159-	=159-	=159-	=159-	=159-
2.D/	-tu-	2.A/	-ta(m)	2.f/	-tu-
4E/	.	4G/	fu-	4e/	-ri
2F\	-ri	2F/	-tu-	2d/	.
2G\	se-	2E/	-ri	2e/	.
=160-	=160-	=160-	=160-	=160-	=160-
2.A\	.	1D	se-	2.f/	se-
*custos:F	*	*	*	*	*
4G\	.	.	.	4e/	-cv-
!LO:LB:g=original	!	!	!	!	!
*clefF3	*	*	*	*	*
2F/	.	1D	-cv-	2f/	-li
2F/	-cu-	.	.	2d/	.
=161-	=161-	=161-	=161-	=161-	=161-
00G	-li	0C	-li	1e	.
.	.	.	.	2r	.
.	.	.	.	2.g/	A
=162-	=162-	=162-	=162-	=162-	=162-
*	*	*lig	*	*	*
.	.	1E	A-	.	.
.	.	.	.	4f/	.
.	.	.	.	1e	.
.	.	1C	.	.	.
.	.	.	.	4d/	.
.	.	.	.	4c/	.
*	*	*Xlig	*	*	*
=163-	=163-	=163-	=163-	=163-	=163-
*	*	*lig	*	*	*
2.G/	A-	1E	.	2.B/	.
4F/	.	.	.	4A/	.
*	*	*	*	*custos:g	*
1E	.	1G	.	2G/	.
!	!	!	!	!LO:PB:g=original	!
.	.	.	.	1g\	.
*	*	*Xlig	*	*	*
=164-	=164-	=164-	=164-	=164-	=164-
*	*	*custos:G	*	*	*
0D	.	0A	.	.	.
.	.	.	.	4f/	.
.	.	.	.	4e/	.
.	.	.	.	1f	.
!	!	!LO:PB:g=original	!	!	!
=165-	=165-	=165-	=165-	=165-	=165-
1.E	.	0G	.	1.g	.
2D/	.	.	.	2f/	.
=166-	=166-	=166-	=166-	=166-	=166-
*	*	*lig	*	*	*
2C/	.	1c	.	1e	.
1c	.	.	.	.	.
.	.	1G	.	1d	.
2B/	.	.	.	.	.
*	*	*Xlig	*	*	*
=167-	=167-	=167-	=167-	=167-	=167-
*	*	*lig	*	*	*
2c\	.	1A	.	4c/	.
.	.	.	.	4d/	.
2A/	.	.	.	4e/	.
.	.	.	.	4f/	.
4G/	.	1E	.	2.g/	.
4F/	.	.	.	.	.
4E/	.	.	.	.	.
4D/	.	.	.	4f/	.
*custos:C	*	*	*	*	*
*	*	*Xlig	*	*	*
!LO:LB:g=original	!	!	!	!	!
=168-	=168-	=168-	=168-	=168-	=168-
*clefF4	*	*lig	*	*	*
*	*	*	*	*custos:f	*
2C/	.	1G	.	2e/	.
!	!	!	!	!LO:LB:g=original	!
2GG/	.	.	.	2.f/	.
1AA	.	1C	.	.	.
.	.	.	.	4e/	.
.	.	.	.	1e\	.
*	*	*Xlig	*	*	*
=169-	=169-	=169-	=169-	=169-	=169-
0GG	.	0D	.	.	.
.	.	.	.	4d/	.
.	.	.	.	4c/	.
.	.	.	.	1d	.
=170-	=170-	=170-	=170-	=170-	=170-
0C;;l	-men	0C;l	-men	0e;l/	.
==	==	==	==	==	==
*-	*-	*-	*-	*-	*-
!!!system-decoration: [(s1,s2,s3)]
!!!RDF**kern: < = below
!!!RDF**kern: l = terminal long
!!!ENC: Anastazja Marusiak
!!!END: 2022-01-14
!!!ENC: Marta Lawrence
!!!END: 2022-01-24
